X: 25688
T: Martin Wynne's
R: reel
M: 4/4
K: Dmajor
FBAF E2FE|DB,~B,2 DB,A,D|B,E~E2 FEDE|FABc dcBA|
FBAF E2FE|DB,EB, DB,A,D|B,E~E2 FEDE|FBBA ~B2BA:|
|:FBAF A2FA|(3Bcd eg fede|~f2af egfe|dfed BAFE|
FBAF A2FA|(3Bcd eg fede|~f2af egfe|dBAF ~B3A:|

